X: 29
T:Kildare Club (#139), The
M:6/8
L:1/8
S:O'Farrell's Pocket Companion 1804-10
K:G
e|dGG dcB|dGG e/2f/2ge|dGG edB|dBA A2 B|
dGG dcB|dBd G2 A|BAG e/2f/2ge|dBA A2:|
|:B|dBd gdB|gba gdB|dBd gdB|cAA A2 B|
dBd ece|dBd g2 a|b2 a/2g/2 e/2f/2ge|dBA A2:||

